X:61
T:Ronde de Loudac
M:4/4
L:1/8
K:C
BB GG AA BB/B/|BB GG AA B2:|\
BB/B/ BA Bcd2|BB BA GF E2|
|:EG B2 BB BB|\
Bc BA GF GE|EG B2 BB B2|Bc BA GF E2:|
